X:1
T:I Should Have Known Better.2.mid
M:4/4
L:1/8
K:C
zzzzzzzzC2zzzzzz | zC2zzzG2zzzzz | zzzzG2zzzC2zz | zzzzzC2zzzG2z | zzzzzzG2zzzC2 | zzzzzzzC2zzG2 | zzzzzzG2zzzC2 | zzzzzzzC2zzG2 | zzzzzzG2zzzC2 | zzzzzzzC2zzG2 | zzzzzzG2zzC2z | zzzzzzC2zzG2z | zzzzzG2zzzC2z | zzzzzzC2zzG2z | zzzzzG2zzzA1z | zzzzzzA1zzA1z | zzzzzA1zzF2zz | zzzzC2zzF2zzz | F2zzzzF2zzzG2 | zzzzzzzG2zzzG2zzzzzzG2zzC2zzz | zzzzC2zzG2zzz | zzzG2zzzC2zzz | zzzzC2zzG2zzz | zzG2zzzC2zzzz | zzzC2zzG2zzzz | zzG2zzzC2zzzz | zzzC2zzG2zzzz | zzG2zzC2zzzzz | zzC2zzG2zzzzz | zG2zzzC2zzzzz | zzC2zzG2zzzzz | zG2zzC2zzzzzz | zC2zzG2zzzzzz | G2zzzA1zzzzzz | zA1zzzA1zzzzz | zA1zzF2zzzzzz | zF2zzzF2zzzzz | zF2zzzE2zzzzz | zzE2zzzE2zzzz | zzE2zzE4A1zzz | zzzA1zzzA1zzz | zzA1zzF4F2zzz | zzC2zzF2zzF2z | zzzF2zzE4C2zz | zzzzC2zzzC2zz | zzzC2zzE4E2zz | zzzE2zzzE2zzE2zzzzE2zzE4A1zzz | zzzA1zzzA1zzz | zzzF4F2zzzzzz | F2zzzF2zzzzzF2zzE4C2zzzzzzC2z | zzC2zzzzzC2zz | E4C2zzzzzzC2z | zzC2zzzzzC2zz | F4F2zzzzzzF2z | zzF2zzzzzF2zF4G2zzzzzG2zzzG2z | zG2zzzzG2zE4C2zzzzzG1zzC2zzC2 | zzzzC2zzE4A1z | zzzzzA1zzzA1z | zzzzA1zF4F2zz | zzzzF2zzzF2zz | zzzF2zzF4G2zz | zzzzG2zzzG2zz | zzG2zzC2zzzzz | zzC2zzzG2zzzz | zzzzzG2zzzC2z | zzzzzzC2zzzG2 | zzzzzzzG2zzzC2zzzzzzzC2zzG2zz | zzzzG2zzzC2zz | zzzzzC2zzG2zz | zzzzG2zzzC2zz | zzzzzC2zzG2zz | zzzzG2zzzC2zz | zzzzzC2zzG2zz | zzzzG2zzC2zzz | zzzzC2zzG2zzz | zzzG2zzA1zzzz | zzzA1zzzA1zzz | zzzA1zzzF2zzz | zzzzF2zzzF2zz | zzzzF2zzG2zzz | zzzzG2zzzG2zz | zzzzG2zzC2zzz | zzzzC2zzG2zzz | zzzG2zzC2zzzz | zzzC2zzG2zzzz | zG2zzzC2zzzzz | zzC2zzG2zzzzz | zG2zzC2zzzzzz | zC2zzG2zzzzzz | G2zzzC2zzzzzz | zC2zzG2zzzzzz | G2zzzC2zzzzzz | zC2zzG2zzzzzz | G2zzzC2zzzzzz | zC2zzG2zzzzzz | G2zzA1zzzzzzz | A1zzzA1zzzzzz | A1zzzF2zzzzzz | F2zzzF2zzzF2z | zzzF2zzzE2zzz | zzzzE2zzzE2zz | zzzzE2zE4A1zz | zzzzA1zzzA1zz | zzzA1zzF4F2zz | zzzC2zzF2zzF2 | zzzzF2zzE4C2z | zzzzC2zzzC2zz | C2zzzzC2zzE4E2zzzzzzE2zzzE2zz | zzzE2zE4A1zzz | zzzA1zzzA1zzz | zzA1zzF4F2zzz | zzzF2zzzF2zzz | zzF2zzE4C2zzz | zzzC2zzzC2zzz | zzC2zzE4C2zzz | zzC2zzzC2zzC2 | zzzzC2zzF4F2z | zzzzzF2zzzF2z | zzzzF2zzF4G2z | zzzzzG2zzzG2z | zzzzG2zzE4C2z | zzzzC2zzzC2zz | C2zzzzC2zzE4A1zzzzzzA1zzzA1zz | zzzA1zzF4F2zz | zzzF2zzzF2zzF2zzzzF2zF4G2zzzz | zG2zzzG2zzG2z | zzG2zzC2zzzzz | zzC2zzzG2zzzz | zzzzzG2zzzC2z | zzzzzzC2zzzG2 | zzzzzG2zzzC2z | zzzzzzC2zzzG2 | zzzzzzzzzG2zz | C2zzzzzzzC2zz | zG2zzzzzzG2zz | zC2zzzzzzzC2z | zzG2zzzzzzzzz | G2zzC2zzzzzzz | C2zzzG2zzzzzG2zzzC2zzzzzzzC2z | zzC2zzzzzzzzz | G1A1zzC2A1zzz | zzzzC2zzzC2zz | zzz
